exported-svg/corner-down-left.svg

<svg height="24" viewBox="0 0 24 24" width="24" xmlns="http://www.w3.org/2000/svg"><path d="m5.70710678 16 4.14644661 4.1464466c.19526211.1952622.19526211.5118446 0 .7071068-.19526215.1952621-.51184463.1952621-.70710678 0l-5-5c-.19526215-.1952622-.19526215-.5118446 0-.7071068l5-5c.19526215-.19526214.51184463-.19526214.70710678 0 .19526211.1952622.19526211.5118446 0 .7071068l-4.14644661 4.1464466h10.79289322c1.9329966 0 3.5-1.5670034 3.5-3.5v-7c0-.27614237.2238576-.5.5-.5s.5.22385763.5.5v7c0 2.4852814-2.0147186 4.5-4.5 4.5z"/></svg>

<?xml version="1.0" encoding="UTF-8"?>
<svg width="24px" height="24px" viewBox="0 0 24 24" version="1.1" xmlns="http://www.w3.org/2000/svg" xmlns:xlink="http://www.w3.org/1999/xlink">
    <!-- Generator: Sketch 55.2 (78181) - https://sketchapp.com -->
    <title>corner-down-left</title>
    <desc>Created with Sketch.</desc>
    <g id="corner-down-left" stroke="none" stroke-width="1" fill="none" fill-rule="evenodd">
        <path d="M5.70710678,16 L9.85355339,20.1464466 C10.0488155,20.3417088 10.0488155,20.6582912 9.85355339,20.8535534 C9.65829124,21.0488155 9.34170876,21.0488155 9.14644661,20.8535534 L4.14644661,15.8535534 C3.95118446,15.6582912 3.95118446,15.3417088 4.14644661,15.1464466 L9.14644661,10.1464466 C9.34170876,9.95118446 9.65829124,9.95118446 9.85355339,10.1464466 C10.0488155,10.3417088 10.0488155,10.6582912 9.85355339,10.8535534 L5.70710678,15 L16.5,15 C18.4329966,15 20,13.4329966 20,11.5 L20,4.5 C20,4.22385763 20.2238576,4 20.5,4 C20.7761424,4 21,4.22385763 21,4.5 L21,11.5 C21,13.9852814 18.9852814,16 16.5,16 L5.70710678,16 Z" id="Combined-Shape" fill="#000000" fill-rule="nonzero"></path>
    </g>
</svg>
